assets/images/ico_step2.svg

<svg width="81" height="81" viewBox="0 0 81 81" fill="none" xmlns="http://www.w3.org/2000/svg">
<path d="M69.8571 45.4285C70.1357 45.1419 70.2897 44.7568 70.2857 44.3571L70.2321 25.875C70.2362 25.4753 70.0821 25.0902 69.8035 24.8035L49.8214 4.82142C48.5427 3.5427 46.8084 2.82432 45 2.82432C43.1916 2.82432 41.4573 3.5427 40.1786 4.82142L4.82148 40.1785C3.54276 41.4572 2.82438 43.1916 2.82438 44.9999C2.82438 46.8083 3.54276 48.5426 4.82148 49.8214L30.3214 75.3213C31.6002 76.6001 33.3345 77.3184 35.1429 77.3184C36.9513 77.3184 38.6856 76.6001 39.9643 75.3213L69.8571 45.4285ZM37.8214 73.1785C37.111 73.8889 36.1475 74.288 35.1429 74.288C34.1382 74.288 33.1747 73.8889 32.4643 73.1785L6.96433 47.6785C6.25393 46.9681 5.85483 46.0046 5.85483 44.9999C5.85483 43.9953 6.25393 43.0318 6.96433 42.3214L42.3214 6.96428C43.0318 6.25388 43.9953 5.85478 45 5.85478C46.0047 5.85478 46.9682 6.25388 47.6786 6.96428L67.2321 26.5178L67.2321 43.7678L37.8214 73.1785Z" fill="#2EBBE1"/>
<path d="M26.4645 29.5713L13.1788 42.857C12.8946 43.1411 12.735 43.5265 12.735 43.9284C12.735 44.3302 12.8946 44.7157 13.1788 44.9998L34.6073 66.4284C34.8915 66.7125 35.2769 66.8722 35.6787 66.8722C36.0806 66.8722 36.466 66.7125 36.7502 66.4284L50.0359 53.1427C50.32 52.8585 50.4797 52.4731 50.4797 52.0712C50.4797 51.6694 50.32 51.284 50.0359 50.9998L28.6073 29.5713C28.3232 29.2871 27.9378 29.1275 27.5359 29.1275C27.134 29.1275 26.7486 29.2871 26.4645 29.5713ZM27.5359 32.7855L46.8216 52.0712L35.6787 63.2141L16.393 43.9284L27.5359 32.7855Z" fill="#2EBBE1"/>
<path d="M40.3393 17.8394C40.6235 18.1236 41.0089 18.2832 41.4108 18.2832C41.8126 18.2832 42.198 18.1236 42.4822 17.8394L45.4286 14.893C45.7128 14.6088 45.8724 14.2234 45.8724 13.8216C45.8724 13.4197 45.7128 13.0343 45.4286 12.7501C45.1444 12.466 44.759 12.3063 44.3572 12.3063C43.9553 12.3063 43.5699 12.466 43.2858 12.7501L40.3393 15.6966C40.0552 15.9807 39.8955 16.3661 39.8955 16.768C39.8955 17.1699 40.0552 17.5553 40.3393 17.8394Z" fill="#2EBBE1"/>
<path d="M45.6963 23.1964C45.9804 23.4805 46.3658 23.6402 46.7677 23.6402C47.1696 23.6402 47.555 23.4805 47.8391 23.1964L50.7855 20.2499C51.0697 19.9658 51.2293 19.5804 51.2293 19.1785C51.2293 18.7767 51.0697 18.3912 50.7855 18.1071C50.5014 17.8229 50.116 17.6633 49.7141 17.6633C49.3122 17.6633 48.9268 17.8229 48.6427 18.1071L45.6963 21.0535C45.4121 21.3377 45.2525 21.7231 45.2525 22.1249C45.2525 22.5268 45.4121 22.9122 45.6963 23.1964Z" fill="#2EBBE1"/>
<path d="M51.0537 28.5536C51.3378 28.8377 51.7232 28.9974 52.1251 28.9974C52.527 28.9974 52.9124 28.8377 53.1965 28.5536L56.143 25.6072C56.4271 25.323 56.5868 24.9376 56.5868 24.5357C56.5868 24.1339 56.4271 23.7485 56.143 23.4643C55.8588 23.1801 55.4734 23.0205 55.0715 23.0205C54.6697 23.0205 54.2843 23.1802 54.0001 23.4643L51.0537 26.4107C50.7695 26.6949 50.6099 27.0803 50.6099 27.4822C50.6099 27.884 50.7695 28.2694 51.0537 28.5536Z" fill="#2EBBE1"/>
</svg>

<svg width="81" height="81" fill="none" xmlns="http://www.w3.org/2000/svg"><path d="M69.857 45.428a1.51 1.51 0 00.429-1.07l-.054-18.483c.004-.4-.15-.785-.428-1.072L49.82 4.822a6.818 6.818 0 00-9.642 0L4.82 40.178a6.819 6.819 0 000 9.643l25.5 25.5a6.818 6.818 0 009.643 0L69.857 45.43zm-32.036 27.75a3.788 3.788 0 01-5.357 0l-25.5-25.5a3.788 3.788 0 010-5.357L42.321 6.964a3.788 3.788 0 015.358 0l19.553 19.554v17.25l-29.41 29.41z" fill="#2EBBE1"/><path d="M26.465 29.571L13.179 42.857a1.515 1.515 0 000 2.143l21.428 21.428a1.516 1.516 0 002.143 0l13.286-13.285a1.516 1.516 0 000-2.143L28.607 29.57a1.515 1.515 0 00-2.142 0zm1.07 3.214l19.287 19.286-11.143 11.143-19.286-19.286 11.143-11.142zM40.34 17.84a1.515 1.515 0 002.142 0l2.947-2.947a1.515 1.515 0 00-2.143-2.143l-2.947 2.947a1.515 1.515 0 000 2.142zm5.356 5.356a1.515 1.515 0 002.143 0l2.947-2.946a1.515 1.515 0 10-2.143-2.143l-2.947 2.947a1.515 1.515 0 000 2.142zm5.358 5.358a1.515 1.515 0 002.142 0l2.947-2.947A1.516 1.516 0 0054 23.464l-2.946 2.947a1.515 1.515 0 000 2.143z" fill="#2EBBE1"/></svg>
